!!!Genre:	Skotshne
!!!Mode:	Major
!!!Listening/dance:	dance
!!!:	*g:dor
!!!One_Mode:	no
**kern
*I"P1
*clefG2
*k[f#]
*g:dor
=10||
*>B
*k[b-]
16b-LL
16a
16b-
16aJJ
16b-LL
16dd
16cc#X
16b-JJ
=11
16b-LL
16aJJ
4a
8a
=12
16cc#XLL
16dd
16ee
16ffJJ
16eeLL
16dd
16cc#
16ddJJ
=13
2ee
=14
16eeLL
16ff
16gg#X
16aaJJ
16gg#LL
16ff
16ee
16ddJJ
=15
4cc#X
16cc#LL
16a
16cc#
16eeJJ
=16
8ddL
16cc#XL
16b-JJ
16aLL
16g
16b-
16aJJ
=17
2g
*>eM
*-
